other/osmdashboardforopentracks.svg

<?xml version="1.0" encoding="UTF-8" standalone="no"?>
<svg
   xmlns:dc="http://purl.org/dc/elements/1.1/"
   xmlns:cc="http://creativecommons.org/ns#"
   xmlns:rdf="http://www.w3.org/1999/02/22-rdf-syntax-ns#"
   xmlns:svg="http://www.w3.org/2000/svg"
   xmlns="http://www.w3.org/2000/svg"
   xmlns:sodipodi="http://sodipodi.sourceforge.net/DTD/sodipodi-0.dtd"
   xmlns:inkscape="http://www.inkscape.org/namespaces/inkscape"
   viewBox="0 0 48 48"
   version="1.1"
   id="svg8"
   sodipodi:docname="osmdashboardforopentracks.svg"
   inkscape:version="1.0.2 (e86c870879, 2021-01-15)">
  <metadata
     id="metadata12">
    <rdf:RDF>
      <cc:Work
         rdf:about="">
        <dc:format>image/svg+xml</dc:format>
        <dc:type
           rdf:resource="http://purl.org/dc/dcmitype/StillImage" />
        <dc:title />
      </cc:Work>
    </rdf:RDF>
  </metadata>
  <sodipodi:namedview
     pagecolor="#ffffff"
     bordercolor="#666666"
     borderopacity="1"
     objecttolerance="10"
     gridtolerance="10"
     guidetolerance="10"
     inkscape:pageopacity="0"
     inkscape:pageshadow="2"
     inkscape:window-width="1920"
     inkscape:window-height="1047"
     id="namedview10"
     showgrid="true"
     inkscape:zoom="7.9999996"
     inkscape:cx="26.667027"
     inkscape:cy="17.644017"
     inkscape:window-x="960"
     inkscape:window-y="0"
     inkscape:window-maximized="1"
     inkscape:current-layer="svg8"
     showguides="true"
     inkscape:guide-bbox="true"
     inkscape:snap-midpoints="true"
     inkscape:snap-others="true"
     inkscape:snap-text-baseline="true"
     inkscape:snap-object-midpoints="true"
     inkscape:snap-center="true"
     inkscape:snap-global="true"
     inkscape:document-rotation="0"
     inkscape:snap-smooth-nodes="true">
    <inkscape:grid
       type="xygrid"
       id="grid859"
       empspacing="8" />
  </sodipodi:namedview>
  <defs
     id="defs4">
    <style
       id="style2">.a{fill:none;stroke:#fff;stroke-linecap:round;stroke-linejoin:round;}</style>
    <style
       id="style833">.cls-1{fill:#f60;}</style>
  </defs>
  <path
     id="path869"
     style="fill:none;stroke:#ffffff;stroke-width:1;stroke-linecap:round;stroke-linejoin:round;stroke-opacity:1;stroke-miterlimit:4;stroke-dasharray:none"
     d="m 26.857143,34.47619 -6.666667,7.619048 H 24 l 14.285714,-16.190476 3.809524,1.904762 V 24 L 33.52381,19.238095 32.571429,22.6086 35.428571,24 c -2.857142,3.497024 -3.434408,4.003814 -6.145833,7.619048 M 6,18 16,14 24.47619,18.761905 27.809524,16.705521 20.190476,12.571429 36.380952,5.9047619 H 28.761905 L 5.9047619,14.47619 Z M 35.428571,11.619048 13.52381,25.904762 24,26.857143 l 3.809524,9.523809 z" />
</svg>

<svg xmlns="http://www.w3.org/2000/svg" viewBox="0 0 48 48"><defs><style>.a{fill:none;stroke:#fff;stroke-linecap:round;stroke-linejoin:round;}</style></defs><path class="a" d="M26.86,34.48,20.19,42.1h4.29L38.29,25.9l3.81,1.91V24l-8.58-4.76-1,3.37L35.43,24c-2.86,3.5-3.44,4-6.15,7.62M6,18l10-4,8.48,4.76,3.33-2.05-7.62-4.14L36.38,5.9H28.76L5.9,14.48Zm29.43-6.38L13.52,25.9l10.48,1,3.81,9.52Z"/></svg>
